X:4
T:Northern Nanny
Q:1/4=180
S:Greg Stephens Collection
L:1/8
K:D
g|d2B2ABAG|G4D4|E2G2GABG|A4A2g2|d2B2ABAG|GABG D3D|EF G2A2B2|e6-e||
B|=c3d ede=f|=f4efge|dedB ABAG|A6g2|d2B2ABAG|G4D2D2|EF G2B2d2|g6-g|]
%%vskip .5cm
